X: 1
T: McGoldrick's
R: jig
M: 6/8
L: 1/8
K: Dmaj
|| e | ~f3 efg | fdA GFE | FAd GBe |1 FAd B/c/d :|2 Adc d2 :||
A | ~B3 BAB | ~f3 fec | ~e3 fec | Ace fec |~B3 BAB |
~f3 fec |1 ~e3 fec | BcA B2 :|2 ~e3 fec | ~g3 a2||


Tune 628	Setting 27826

